X:1
T:God Helping Me, I’ll Stand
T:God Helping Me, I’ll Stand
T:Edward Milo Fuller
T:William Clark Martin, 1900
T:Public Domain Courtesy of the Cyber Hymnal™
T:Public Domain Courtesy of the Cyber Hymnal™
C:Edward Milo Fuller
Z:Public Domain
Z:Courtesy of the Cyber Hymnal™
%%score ( 1 2 ) ( 3 4 )
L:1/8
Q:1/4=108
M:4/4
K:G
V:1 treble 
V:2 treble 
V:3 bass 
V:4 bass 
V:1
 D2 | [DG]3 [DG] [CG]2 [CF]2 | [CE]2 [CF]2 [B,G]2 [DA]2 | [DB]3 [DB] [DB]2 [DA]2 | %4
w: 1.~A|wor- thy sol- dier|I would be Of|Christ, who gave Him-|
w: 2.~When|o- ver me shall|grand- ly wave The|ban- ner of the|
w: 3.~Though|I be wea- ry|in the fight, And|Sa- tan’s le- gions,|
 [DG]2 [DA]2 [DB]2 [Gd]2 | [FA]3 [DF] [^CG]2 [CE]2 | D6 D2 | [DA]3 [DA] [DA]2 [D^G]2 | %8
w: self for me, O-|bey- ing His com-|mand; And|with the Gos- pel|
w: mar- tyred brave, God’s|faith- ful, stead- fast|band, Be-|neath which none e’er|
w: in their spite, At-|tack on ev- ery|hand, I’ll|stand by Christ, my|
 [DA]2 [EB]2 [Fc]2 [FA]2 | [GB]3 [GB] [GB]2 [FA]2 | [GB]2 [Gc]2 [Gd]2 [Ge]2 | %11
w: shield and sword, For|truth and right, with|Christ my Lord, God|
w: fought in vain, All|foes and dan- gers|I’ll dis- dain; God|
w: faith- ful friend, And|stea- di- ly un-|to the end, God|
 [Gd]3 [GB] [GB]2 [FA]2 | G6 ||"^Refrain" d2 | d3 B B2 G2 | d6 [Gd]2 | [Gd]3 [GB] [GB]2 [GA]2 | %17
w: help- ing me, I’ll|stand.|||||
w: help- ing me, I’ll|stand.|God|help- ing me, I’ll|stand, With|His un- yield- ing|
w: help- ing me, I’ll|stand.|||||
 A6 [FA]2 | [GB]3 [GB] [Fc]2 [Ac]2 | [Gd]2 G2 !fermata![Ge]2 [Ge]2 | [Gd]3 [GB] [GB]2 [FA]2 | G6 |] %22
w: |||||
w: band; All|times and ev- ery-|where for Christ, God|help- ing me, I’ll|stand.|
w: |||||
V:2
 D2 | x8 | x8 | x8 | x8 | x8 | D6 D2 | x8 | x8 | x8 | x8 | x8 | G6 || d2 | d3 B B2 G2 | %15
 (F2 A2 G2) x2 | x8 | (F2 G2 F2) x2 | x8 | x2 G2 x4 | x8 | G6 |] %22
V:3
 D,2 | [G,,B,]3 [B,,G,] [D,A,]2 [D,A,]2 | [D,A,]2 [D,A,]2 [G,,G,]2 [D,F,]2 | G,3 G, G,2 [D,F,]2 | %4
w: ~|~ ~ ~ ~|~ ~ ~ ~|~ ~ ~ ~|
 [B,,G,]2 [D,F,]2 G,2 [G,B,]2 | [A,D]3 A, [A,,A,]2 [A,,G,]2 | [D,F,]6 [D,F,]2 | %7
w: ~ ~ ~ ~|~ ~ ~ ~|~ ~|
 [D,F,]3 [D,F,] [D,F,]2 [D,^E,]2 | [D,F,]2 [D,G,]2 [D,A,]2 [D,D]2 | [G,D]3 [G,D] [G,D]2 [D,D]2 | %10
w: ~ ~ ~ ~|~ ~ ~ ~|~ ~ ~ ~|
 [G,,D]2 [A,,D]2 [B,,B,]2 [^C,^A,]2 | [D,B,]3 [D,D] [A,,^C]2 [D,=C]2 | [G,B,]6 || D2 | %14
w: ~ ~ ~ ~|~ ~ ~ ~|~|~|
 D3 D B,2 G,2 | [D,A,]2 [F,C]2 [G,B,]2 [G,B,]2 | [G,B,]3 [G,D] [E,^C]2 [A,,C]2 | %17
w: ~ ~ ~ ~|~ I’ll stand ~|~ With His un-|
 [D,D]2 [^C,E]2 [D,D]2 [D,D]2 | [G,D]3 [G,D] [A,D]2 [A,D]2 | %19
w: yield- ing band, *||
 [B,D]2 [B,,E]2 !fermata![C,E]2 [^C,^A,]2 | [D,B,]3 [D,D] [A,,^C]2 [D,C]2 | [G,,G,B,]6 |] %22
w: |||
V:4
 D,2 | x8 | x8 | G,3 G,2 x3 | x4 G,2 x2 | x3 A, x4 | x8 | x8 | x8 | x8 | x8 | x8 | x6 || D2 | %14
 D3 D B,2 G,2 | x8 | x8 | x8 | x8 | x8 | x8 | x6 |] %22

